lib/preview/nrk-logo-preview-nrk-klassisk-on-light.svg

<svg width="100" height="14" viewBox="0 0 100 14" fill="none" xmlns="http://www.w3.org/2000/svg">
<path d="M0 13.0004V1.00146H3.93719V13.0004H0ZM9.29381 2.91115L11.5581 13.0004H7.24917L4.54549 1.00146H6.96218C7.51635 0.994264 8.05406 1.18961 8.4745 1.55076C8.89562 1.89675 9.18495 2.37706 9.29381 2.91115ZM12.1495 13.0004V1.00146H16.0867V13.0004H12.1495ZM19.0605 5.56447C18.6362 5.5686 18.2188 5.4576 17.8525 5.24333C17.4912 5.03449 17.1911 4.73433 16.9823 4.37296C16.7678 4.0067 16.6568 3.58913 16.661 3.16468C16.6561 2.74283 16.7672 2.32775 16.9823 1.96479C17.1933 1.60736 17.4931 1.31046 17.8525 1.10289C18.2189 0.888869 18.6362 0.777881 19.0605 0.78175C19.4822 0.777208 19.8971 0.888295 20.2602 1.10289C20.616 1.31228 20.9127 1.60893 21.122 1.96479C21.3368 2.32785 21.4479 2.74286 21.4433 3.16468C21.4473 3.58909 21.3363 4.00659 21.122 4.37296C20.9149 4.73274 20.6179 5.03265 20.2602 5.24333C19.8971 5.45834 19.4819 5.56946 19.0599 5.56447H19.0605ZM22.0516 13.0004V1.00146H25.9892V13.0004H22.0516ZM30.9737 7.5586C30.9848 7.57024 31.0693 7.70825 31.2272 7.97264C31.3851 8.23703 31.5906 8.57505 31.8439 8.98666C32.0974 9.39807 32.3649 9.83462 32.6463 10.2964C32.9278 10.7581 33.1926 11.1947 33.4408 11.6061C33.6881 12.0176 33.9697 12.4823 34.2857 13.0004H29.9598C29.6893 12.561 29.4441 12.1638 29.2245 11.8089C29.0048 11.454 28.7713 11.071 28.5238 10.6597C28.2758 10.2489 28.0306 9.8489 27.7882 9.45983C27.5458 9.07076 27.3375 8.72998 27.1633 8.43742C26.9883 8.14468 26.8671 7.94749 26.7997 7.8459C26.6325 7.59381 26.5336 7.30266 26.5127 7.00091C26.5294 6.7113 26.6226 6.43134 26.7828 6.18948C26.8504 6.07681 26.9743 5.87679 27.1545 5.5895C27.3348 5.3022 27.546 4.96142 27.7882 4.56709C28.0304 4.17276 28.2756 3.76997 28.5238 3.35874C28.772 2.94751 29.0056 2.5616 29.2245 2.20107C29.4445 1.84092 29.6897 1.44095 29.9598 1.00118H34.2857L30.9396 6.45986C30.8361 6.62193 30.7777 6.80871 30.7706 7.00091C30.7818 7.20269 30.8522 7.39668 30.9731 7.5586H30.9737Z" fill="#0A2343"/>
<path d="M47.9565 1.01032H45.8462L41.26 6.29441H40.6297V1.01032H38.8571V12.9966H40.6297V7.57743H40.6894L45.6777 13.0135L48.0919 12.9963L42.3689 7.05382L47.9565 1.01032Z" fill="#6B046A"/>
<path d="M52.101 11.7554C52.0422 11.7619 51.983 11.7648 51.9238 11.7641C51.7967 11.7679 51.6702 11.7448 51.5527 11.6963C51.4503 11.6508 51.3627 11.5778 51.2995 11.4853C51.2262 11.376 51.1772 11.2522 51.156 11.1223C51.1256 10.9497 51.1114 10.7746 51.1138 10.5993V0.250601L49.3918 0.503838V11.359C49.3846 11.6435 49.4304 11.9269 49.5268 12.1946C49.6078 12.4122 49.7412 12.6065 49.9151 12.7602C50.0884 12.9087 50.2934 13.0156 50.5144 13.0725C50.7597 13.1361 51.0123 13.1673 51.2657 13.1654C51.401 13.1654 51.5302 13.1597 51.654 13.1482C51.7778 13.1367 51.8988 13.1201 52.017 13.0978C52.1351 13.0756 52.2336 13.0528 52.3124 13.0303L52.4812 11.6963C52.4137 11.708 52.3461 11.7192 52.2786 11.7301C52.2111 11.741 52.1519 11.7494 52.101 11.7554Z" fill="#6B046A"/>
<path d="M61.5128 11.933C61.3894 11.9443 61.2651 11.9257 61.1505 11.8786C61.0359 11.8315 60.9343 11.7574 60.8544 11.6626C60.6978 11.3922 60.6327 11.0785 60.6687 10.7681L60.7025 7.29045C60.7062 6.92577 60.6608 6.56224 60.5674 6.2097C60.4854 5.90072 60.3481 5.60914 60.1623 5.349C59.9745 5.09452 59.7359 4.88182 59.4617 4.72438C59.1432 4.54327 58.7986 4.4123 58.4403 4.33609C58.0021 4.24143 57.5548 4.1961 57.1066 4.201C56.7511 4.20085 56.396 4.2234 56.0434 4.26853C55.71 4.31042 55.3799 4.37522 55.0554 4.46241C54.7546 4.54419 54.4587 4.64293 54.1691 4.75814L53.9665 6.19311C54.2479 6.09144 54.5152 6.00702 54.7685 5.93987C55.0217 5.87272 55.2665 5.81645 55.5028 5.77105C55.7344 5.72667 55.9683 5.69565 56.2034 5.67818C56.4339 5.6613 56.662 5.65287 56.8875 5.65287C57.2316 5.64549 57.5751 5.68526 57.9085 5.77105C58.1518 5.83192 58.3756 5.95396 58.5585 6.12558C58.7213 6.29243 58.8377 6.4989 58.8961 6.72459C58.9682 7.003 59.0024 7.28986 58.9977 7.57741L58.9957 8.00118L57.0222 8.13455C56.3473 8.15338 55.6823 8.30241 55.0639 8.57347C54.601 8.77594 54.2015 9.09964 53.9075 9.51041C53.6578 9.87587 53.5253 10.3087 53.5276 10.7513C53.5244 11.1664 53.6261 11.5757 53.823 11.9412C54.0295 12.3168 54.3402 12.6248 54.7178 12.8277C55.1783 13.0673 55.693 13.1837 56.2119 13.1654C56.698 13.1766 57.1819 13.0964 57.6384 12.9288C58.0331 12.7742 58.3942 12.5449 58.702 12.2535C58.8187 12.1413 58.9296 12.0232 59.034 11.8995C59.0668 12.0744 59.1286 12.2425 59.2168 12.397C59.3673 12.6554 59.5987 12.8571 59.8753 12.971C60.181 13.0937 60.5082 13.1539 60.8375 13.148C60.9388 13.148 61.0373 13.1454 61.133 13.1395C61.2269 13.1341 61.3201 13.12 61.4115 13.0976C61.5016 13.0748 61.5829 13.0551 61.6563 13.0385C61.7224 13.0235 61.7873 13.0037 61.8505 12.9794L62.0362 11.848C61.943 11.8802 61.8468 11.9029 61.7492 11.9158C61.6708 11.9264 61.5919 11.9321 61.5128 11.933ZM58.702 11.1733C58.5189 11.3179 58.3208 11.4423 58.1111 11.5444C57.9022 11.6462 57.6808 11.7201 57.4527 11.7642C57.2163 11.8097 56.9762 11.8323 56.7355 11.8317C56.4603 11.8396 56.1866 11.7878 55.9333 11.6798C55.7274 11.5902 55.5536 11.4399 55.4353 11.249C55.3184 11.0466 55.2599 10.8158 55.2664 10.5822C55.2502 10.3008 55.3273 10.022 55.4859 9.789C55.6696 9.57442 55.9187 9.42613 56.195 9.36694C56.6262 9.26528 57.0689 9.21985 57.5118 9.23186H58.9901L58.9825 10.9074C58.8968 11.004 58.803 11.0929 58.702 11.1733Z" fill="#6B046A"/>
<path d="M68.9744 9.11369C68.8016 8.93038 68.6025 8.77381 68.3836 8.64915C68.1569 8.51958 67.9197 8.40944 67.6745 8.31994C67.4944 8.26367 67.3172 8.20458 67.1428 8.14268C66.9683 8.08078 66.7938 8.02451 66.6194 7.97387C66.4446 7.92322 66.2757 7.86974 66.1129 7.81347C65.9598 7.76145 65.8104 7.69935 65.6656 7.62751C65.5268 7.55373 65.3941 7.46905 65.2688 7.37428C65.153 7.2871 65.0555 7.17802 64.9818 7.05324C64.9073 6.92521 64.8693 6.77927 64.8718 6.63119C64.8674 6.46849 64.9085 6.30778 64.9905 6.1672C65.0786 6.02897 65.2007 5.91562 65.3451 5.83799C65.5217 5.74095 65.7126 5.67249 65.9106 5.63513C66.1582 5.58775 66.4098 5.56522 66.6618 5.56788C66.7854 5.56788 66.9208 5.57381 67.0668 5.58478C67.2128 5.59576 67.3735 5.61572 67.5482 5.64386C67.7229 5.67199 67.8965 5.70858 68.0715 5.75332C68.2465 5.79806 68.4232 5.84924 68.6033 5.90524C68.7701 5.9568 68.9334 6.01883 69.0923 6.09095L69.211 4.72378C68.997 4.63374 68.786 4.55488 68.578 4.48717C68.37 4.41999 68.1587 4.36361 67.9449 4.31832C67.736 4.27406 67.5246 4.24306 67.3118 4.22548C67.103 4.2086 66.8982 4.20017 66.6954 4.20017C66.229 4.19545 65.764 4.24931 65.3111 4.36053C64.9238 4.45471 64.5556 4.61461 64.2224 4.83324C63.9201 5.03298 63.6732 5.30591 63.5046 5.62668C63.3284 5.98015 63.2415 6.37141 63.2514 6.76624C63.2463 7.05061 63.292 7.3336 63.3865 7.60189C63.4669 7.82683 63.5869 8.03555 63.741 8.2181C63.8911 8.39029 64.0644 8.54084 64.2559 8.66547C64.4553 8.79632 64.6674 8.90659 64.889 8.99465C65.0124 9.03967 65.1419 9.08459 65.2775 9.12942C65.4126 9.17472 65.5446 9.21695 65.6743 9.25606C65.804 9.29517 65.9297 9.33514 66.0541 9.37425C66.1785 9.41336 66.2986 9.45329 66.4168 9.4924C66.535 9.53151 66.6503 9.56865 66.7629 9.60241C66.914 9.65582 67.0608 9.72065 67.2021 9.7963C67.3259 9.86202 67.442 9.94138 67.5482 10.0329C67.6415 10.1147 67.7163 10.2154 67.7677 10.3284C67.819 10.4453 67.8448 10.5718 67.8434 10.6995C67.8494 10.8243 67.8275 10.949 67.7793 11.0643C67.7312 11.1797 67.6579 11.2828 67.5648 11.3663C67.3559 11.5411 67.1061 11.6602 66.8389 11.7127C66.5258 11.7817 66.2059 11.8156 65.8853 11.8137C65.6848 11.8124 65.4845 11.7984 65.2857 11.7718C65.0664 11.7436 64.8358 11.7042 64.5938 11.6536C64.3518 11.6029 64.1042 11.541 63.851 11.4679C63.5976 11.3947 63.3415 11.3131 63.0828 11.2231L63.1501 12.6581C63.4425 12.7595 63.7099 12.8411 63.952 12.9028C64.1942 12.9646 64.425 13.0181 64.6445 13.0635C64.8558 13.1074 65.0702 13.1356 65.2857 13.1479C65.4939 13.1596 65.7049 13.1653 65.9188 13.1651C66.3897 13.1675 66.8596 13.1193 67.3203 13.0213C67.7257 12.9391 68.1141 12.7878 68.4683 12.5739C68.7875 12.379 69.0518 12.1061 69.2364 11.7808C69.4295 11.4235 69.5254 11.0217 69.5144 10.6156C69.5215 10.3195 69.4729 10.0247 69.3712 9.7465C69.2804 9.51224 69.1457 9.29746 68.9744 9.11369Z" fill="#6B046A"/>
<path d="M76.8919 9.1137C76.719 8.93045 76.5198 8.7739 76.301 8.64916C76.0743 8.51952 75.837 8.40938 75.5916 8.31995C75.4116 8.26367 75.2343 8.20459 75.0599 8.14268C74.8854 8.08078 74.7109 8.02452 74.5365 7.97387C74.3621 7.92322 74.1932 7.86975 74.03 7.81347C73.877 7.7614 73.7276 7.6993 73.5827 7.62752C73.444 7.55374 73.3113 7.46906 73.1859 7.37428C73.0702 7.28712 72.9728 7.17804 72.8993 7.05324C72.8247 6.92527 72.7866 6.77929 72.7892 6.63119C72.7847 6.46852 72.8257 6.30782 72.9076 6.1672C72.9956 6.02884 73.1177 5.91545 73.2622 5.83799C73.4388 5.74095 73.6297 5.6725 73.8277 5.63514C74.0752 5.58777 74.3268 5.56524 74.5788 5.56789C74.7025 5.56789 74.8376 5.57381 74.9842 5.58479C75.1308 5.59576 75.2906 5.61573 75.4653 5.64386C75.64 5.672 75.814 5.70859 75.9884 5.75333C76.1629 5.79806 76.3401 5.84925 76.5204 5.90524C76.6873 5.95679 76.8507 6.01882 77.0097 6.09095L77.1282 4.72379C76.9141 4.63375 76.7031 4.55489 76.4951 4.48717C76.2871 4.41994 76.0758 4.36357 75.862 4.31832C75.6531 4.27406 75.4417 4.24306 75.2289 4.22548C75.0203 4.2086 74.815 4.20017 74.6128 4.20017C74.1464 4.1954 73.6813 4.24927 73.2284 4.36054C72.8411 4.45462 72.4728 4.61453 72.1395 4.83325C71.8373 5.03298 71.5905 5.30592 71.4221 5.62669C71.2456 5.98005 71.1586 6.37139 71.1688 6.76624C71.1637 7.05064 71.2095 7.33365 71.3041 7.6019C71.3842 7.82699 71.5043 8.03576 71.6587 8.21811C71.8087 8.39041 71.982 8.54097 72.1736 8.66547C72.3729 8.79632 72.5851 8.9066 72.8067 8.99465C72.9301 9.03967 73.0595 9.0846 73.1949 9.12943C73.33 9.17473 73.462 9.21696 73.5917 9.25607C73.7214 9.29518 73.8474 9.33514 73.9712 9.37425C74.095 9.41336 74.216 9.45329 74.3342 9.4924C74.4524 9.53152 74.5677 9.56865 74.6806 9.60242C74.8315 9.65582 74.9781 9.72065 75.1192 9.7963C75.2432 9.86189 75.3594 9.94126 75.4656 10.0329C75.5589 10.1146 75.6337 10.2154 75.6848 10.3284C75.7365 10.4452 75.7625 10.5717 75.761 10.6995C75.7671 10.8244 75.7452 10.949 75.6969 11.0644C75.6487 11.1797 75.5753 11.2829 75.4822 11.3663C75.2733 11.5411 75.0235 11.6602 74.7563 11.7127C74.4431 11.7817 74.1233 11.8156 73.8027 11.8137C73.6023 11.8124 73.4021 11.7984 73.2034 11.7718C72.9839 11.7436 72.7532 11.7042 72.5112 11.6536C72.2692 11.603 72.0216 11.541 71.7682 11.4679C71.5151 11.3947 71.2592 11.3131 71.0003 11.2231L71.0678 12.6581C71.3601 12.7595 71.6273 12.8411 71.8697 12.9029C72.112 12.9646 72.3428 13.0181 72.5618 13.0635C72.7733 13.1074 72.9878 13.1356 73.2034 13.148C73.4114 13.1596 73.6224 13.1653 73.8364 13.1651C74.3072 13.1676 74.7769 13.1194 75.2374 13.0213C75.6429 12.9392 76.0312 12.7878 76.3854 12.574C76.7047 12.3791 76.9692 12.1061 77.1538 11.7808C77.3471 11.4235 77.443 11.0217 77.4321 10.6156C77.4392 10.3195 77.3905 10.0247 77.2886 9.7465C77.1979 9.5122 77.0633 9.2974 76.8919 9.1137Z" fill="#6B046A"/>
<path d="M80.952 0.681053C80.7768 0.573994 80.5751 0.518428 80.3698 0.520689C80.1619 0.519103 79.9576 0.57456 79.779 0.681053C79.6029 0.784087 79.4551 0.92908 79.3487 1.1031C79.2414 1.27815 79.1857 1.47997 79.1881 1.68528C79.1864 1.89324 79.242 2.09765 79.3487 2.27615C79.4519 2.45268 79.6005 2.5984 79.779 2.6982C79.9593 2.79943 80.163 2.85182 80.3698 2.85015C80.5739 2.85246 80.775 2.79998 80.952 2.6982C81.1256 2.59759 81.2687 2.45171 81.3659 2.27615C81.4671 2.09578 81.5195 1.89211 81.5178 1.68528C81.5202 1.48113 81.4677 1.28007 81.3659 1.1031C81.2655 0.929934 81.1232 0.784797 80.952 0.681053Z" fill="#6B046A"/>
<path d="M79.4748 12.9963H81.1968V4.21764L79.4748 4.47088V12.9963Z" fill="#6B046A"/>
<path d="M89.1651 9.1137C88.9923 8.93037 88.7932 8.7738 88.5742 8.64916C88.3475 8.51954 88.1103 8.40939 87.8649 8.31995C87.685 8.26367 87.5078 8.20459 87.3334 8.14269C87.1589 8.08078 86.9844 8.02452 86.8098 7.97387C86.6353 7.92323 86.4665 7.86975 86.3033 7.81347C86.1503 7.76144 86.0009 7.69934 85.8562 7.62752C85.7173 7.55381 85.5846 7.46912 85.4592 7.37428C85.3435 7.2871 85.2461 7.17802 85.1725 7.05324C85.0979 6.92527 85.0599 6.77929 85.0625 6.63119C85.058 6.46852 85.099 6.30782 85.1809 6.1672C85.2689 6.02886 85.391 5.91547 85.5355 5.83799C85.7121 5.74095 85.903 5.6725 86.101 5.63514C86.3486 5.58777 86.6002 5.56524 86.8522 5.56789C86.9758 5.56789 87.1111 5.57381 87.2574 5.58479C87.4037 5.59576 87.5639 5.61573 87.7386 5.64386C87.9133 5.672 88.0872 5.70859 88.2616 5.75333C88.4361 5.79806 88.6134 5.84925 88.7937 5.90524C88.9606 5.9568 89.124 6.01884 89.283 6.09095L89.4014 4.72379C89.1874 4.63375 88.9764 4.55489 88.7684 4.48717C88.5604 4.41993 88.3491 4.36355 88.1353 4.31832C87.9264 4.27406 87.715 4.24306 87.5022 4.22548C87.2938 4.2086 87.0884 4.20017 86.886 4.20017C86.4197 4.1954 85.9546 4.24927 85.5017 4.36054C85.1143 4.45461 84.746 4.61452 84.4128 4.83325C84.1106 5.03299 83.8637 5.30593 83.6953 5.62669C83.5188 5.98006 83.4319 6.37139 83.4421 6.76624C83.4369 7.05065 83.4828 7.33366 83.5774 7.6019C83.6575 7.82699 83.7776 8.03576 83.9319 8.21811C84.082 8.39036 84.2554 8.54091 84.4469 8.66547C84.6462 8.79632 84.8583 8.9066 85.08 8.99465C85.2034 9.03967 85.3328 9.0846 85.4682 9.12943C85.6036 9.17426 85.7359 9.21649 85.8649 9.25607C85.994 9.29583 86.1205 9.33524 86.2445 9.37425C86.3685 9.41327 86.4895 9.45264 86.6075 9.4924C86.7257 9.53198 86.8411 9.56865 86.9538 9.60242C87.1048 9.65582 87.2516 9.72065 87.3928 9.7963C87.5167 9.86196 87.6327 9.94132 87.7389 10.0329C87.8322 10.1146 87.907 10.2153 87.9581 10.3284C88.0098 10.4452 88.0358 10.5717 88.0343 10.6995C88.0403 10.8243 88.0184 10.949 87.9702 11.0643C87.922 11.1797 87.8488 11.2829 87.7557 11.3663C87.5466 11.541 87.2969 11.6602 87.0295 11.7127C86.7164 11.7817 86.3966 11.8156 86.0759 11.8137C85.8755 11.8124 85.6753 11.7984 85.4767 11.7718C85.2572 11.7436 85.0265 11.7042 84.7845 11.6536C84.5425 11.603 84.2948 11.541 84.0414 11.4679C83.7885 11.3947 83.5326 11.3131 83.2735 11.2231L83.341 12.6581C83.6335 12.7595 83.9008 12.8411 84.143 12.9029C84.3851 12.9646 84.6159 13.0181 84.8351 13.0635C85.0466 13.1074 85.261 13.1356 85.4767 13.148C85.6847 13.1596 85.8957 13.1653 86.1097 13.1651C86.5805 13.1676 87.0502 13.1194 87.5107 13.0213C87.9162 12.9391 88.3047 12.7878 88.6589 12.574C88.9781 12.379 89.2425 12.1061 89.4271 11.7808C89.6203 11.4235 89.7163 11.0217 89.7053 10.6156C89.7124 10.3195 89.6637 10.0247 89.5618 9.7465C89.4712 9.5122 89.3365 9.2974 89.1651 9.1137Z" fill="#6B046A"/>
<path d="M96.9491 12.9963H99.1776L95.0825 8.38187L99.0932 4.38646H96.9829L94.0941 7.56029H93.4715V0.250366L91.7495 0.50357V12.9963H93.4715V8.86021H93.4996L96.9491 12.9963Z" fill="#6B046A"/>
</svg>

<svg xmlns="http://www.w3.org/2000/svg" viewBox="0 0 100 14"><path fill="#0A2343" d="M0 13V1.001h3.937v12H0ZM9.294 2.911l2.264 10.09H7.25L4.545 1h2.417a2.276 2.276 0 0 1 1.513.55c.42.346.71.826.819 1.36Zm2.855 10.09V1h3.938v12h-3.938Zm6.912-7.437a2.381 2.381 0 0 1-2.4-2.4 2.301 2.301 0 0 1 .321-1.2 2.41 2.41 0 0 1 3.278-.861c.356.21.653.506.862.862.215.363.326.778.321 1.2a2.35 2.35 0 0 1-.321 1.208 2.4 2.4 0 0 1-.862.87 2.302 2.302 0 0 1-1.2.321ZM22.05 13V1.001h3.938v12h-3.937Zm8.923-5.441c.01.011.095.15.253.414s.364.602.617 1.014a311.468 311.468 0 0 1 1.597 2.62c.247.41.529.875.845 1.393H29.96c-.27-.439-.516-.836-.736-1.191-.22-.355-.453-.738-.7-1.15-.248-.41-.493-.81-.736-1.2-.242-.388-.45-.729-.625-1.022-.175-.292-.296-.49-.363-.591A1.747 1.747 0 0 1 26.513 7c.016-.29.11-.57.27-.812.067-.112.191-.312.371-.6a182.106 182.106 0 0 0 1.37-2.23l.7-1.158.736-1.2h4.326L30.94 6.46a1.08 1.08 0 0 0-.17.54c.012.203.082.397.203.559Z"/><path fill="#6B046A" d="M47.956 1.01h-2.11L41.26 6.294h-.63V1.01h-1.773v11.987h1.773v-5.42h.06l4.988 5.437 2.414-.018-5.723-5.942 5.587-6.044ZM52.101 11.755c-.059.007-.118.01-.177.01a.902.902 0 0 1-.371-.069.603.603 0 0 1-.253-.21.917.917 0 0 1-.144-.364 2.795 2.795 0 0 1-.042-.523V.251l-1.722.253v10.855c-.007.284.038.568.135.836.08.217.214.412.388.565.173.149.378.256.6.313.245.063.497.094.75.092a4.198 4.198 0 0 0 .752-.067c.118-.022.217-.045.295-.068l.17-1.334a17.822 17.822 0 0 1-.381.06ZM61.513 11.933a.769.769 0 0 1-.659-.27 1.451 1.451 0 0 1-.185-.895l.034-3.478a4.06 4.06 0 0 0-.136-1.08 2.65 2.65 0 0 0-.405-.861 2.285 2.285 0 0 0-.7-.625 3.568 3.568 0 0 0-1.022-.388 6.005 6.005 0 0 0-1.333-.135c-.356 0-.711.022-1.064.068a7.328 7.328 0 0 0-.988.193c-.3.082-.596.18-.886.296l-.202 1.435a9.635 9.635 0 0 1 1.536-.422 6.14 6.14 0 0 1 .7-.093c.23-.017.459-.025.684-.025.345-.008.688.032 1.021.118.244.06.468.183.65.355.163.166.28.373.338.599.072.278.106.565.102.852l-.002.424-1.974.134a5.242 5.242 0 0 0-1.958.438 2.804 2.804 0 0 0-1.157.937 2.18 2.18 0 0 0-.38 1.241 2.47 2.47 0 0 0 .296 1.19c.206.376.517.684.895.887.46.24.975.356 1.494.337a3.88 3.88 0 0 0 1.426-.236 3.295 3.295 0 0 0 1.064-.675c.117-.113.228-.23.332-.354.033.174.095.342.183.497.15.258.382.46.658.574.306.123.633.183.962.177.102 0 .2-.003.296-.008.094-.006.187-.02.278-.042l.245-.06c.066-.014.131-.034.194-.059l.186-1.131c-.093.032-.19.055-.287.068-.078.01-.157.016-.236.017Zm-2.811-.76a3.246 3.246 0 0 1-.59.371c-.21.102-.431.176-.66.22a3.745 3.745 0 0 1-.716.068 1.906 1.906 0 0 1-.803-.152c-.206-.09-.38-.24-.498-.431a1.263 1.263 0 0 1-.169-.667c-.016-.281.061-.56.22-.793.184-.215.433-.363.709-.422a5.133 5.133 0 0 1 1.317-.135h1.478l-.008 1.675c-.085.097-.179.186-.28.266ZM68.974 9.114a2.538 2.538 0 0 0-.59-.465 4.624 4.624 0 0 0-.71-.33c-.18-.055-.357-.114-.531-.176a9.436 9.436 0 0 0-.524-.17c-.174-.05-.343-.103-.506-.16a3.644 3.644 0 0 1-.447-.185 2.964 2.964 0 0 1-.397-.254 1.106 1.106 0 0 1-.287-.32.812.812 0 0 1-.11-.423.874.874 0 0 1 .118-.464.959.959 0 0 1 .355-.329 1.91 1.91 0 0 1 .566-.203c.247-.047.499-.07.75-.067a5.455 5.455 0 0 1 .887.076c.175.028.349.065.523.11.175.044.352.095.532.151.167.052.33.114.49.186l.118-1.367a8.092 8.092 0 0 0-.633-.237 6.324 6.324 0 0 0-.633-.169 5.067 5.067 0 0 0-.633-.093 7.636 7.636 0 0 0-.617-.025 5.568 5.568 0 0 0-1.384.16 3.486 3.486 0 0 0-1.089.473c-.302.2-.549.473-.717.794a2.418 2.418 0 0 0-.254 1.14c-.005.284.041.567.136.835.08.225.2.434.354.616.15.172.323.323.515.447.2.131.411.242.633.33a13.486 13.486 0 0 0 .785.261l.38.118.363.118c.118.04.233.077.346.11.151.054.298.119.44.194.123.066.239.145.345.237a.874.874 0 0 1 .22.295.899.899 0 0 1 .075.372.841.841 0 0 1-.278.666 1.617 1.617 0 0 1-.726.347 4.313 4.313 0 0 1-.954.1c-.2 0-.4-.015-.6-.041a8.992 8.992 0 0 1-.691-.118c-.242-.051-.49-.113-.743-.186s-.51-.155-.768-.245l.067 1.435c.293.101.56.183.802.245s.473.115.692.16c.212.044.426.073.642.085.208.012.419.017.633.017.47.003.94-.046 1.401-.144a3.608 3.608 0 0 0 1.148-.447c.32-.195.584-.468.768-.793.194-.357.29-.76.278-1.165a2.366 2.366 0 0 0-.143-.87 1.975 1.975 0 0 0-.397-.632ZM76.892 9.114a2.546 2.546 0 0 0-.591-.465 4.606 4.606 0 0 0-.71-.329c-.18-.056-.357-.115-.531-.177a9.445 9.445 0 0 0-.523-.17c-.175-.05-.344-.103-.507-.16a3.675 3.675 0 0 1-.447-.185 2.976 2.976 0 0 1-.397-.254 1.102 1.102 0 0 1-.287-.32.81.81 0 0 1-.11-.423.874.874 0 0 1 .119-.464.955.955 0 0 1 .354-.329 1.91 1.91 0 0 1 .566-.203c.247-.047.499-.07.75-.067a5.47 5.47 0 0 1 .887.076c.175.028.349.065.523.11.175.044.352.095.532.151.167.052.33.114.49.186l.118-1.367a8.113 8.113 0 0 0-.633-.237 6.3 6.3 0 0 0-.633-.169 5.067 5.067 0 0 0-.633-.093 7.636 7.636 0 0 0-.616-.025 5.564 5.564 0 0 0-1.385.16 3.483 3.483 0 0 0-1.088.473c-.303.2-.55.473-.718.794a2.41 2.41 0 0 0-.253 1.14c-.005.284.04.567.135.835.08.225.2.434.355.616.15.172.323.323.515.447.199.131.411.242.633.33a13.673 13.673 0 0 0 .785.261l.38.118.362.118c.118.04.234.077.347.11.15.054.297.119.438.194.124.066.24.145.347.237a.869.869 0 0 1 .295.667.839.839 0 0 1-.279.666 1.617 1.617 0 0 1-.726.347 4.313 4.313 0 0 1-.953.1 4.75 4.75 0 0 1-.6-.041 8.982 8.982 0 0 1-.692-.118c-.242-.051-.49-.113-.743-.186a15.202 15.202 0 0 1-.768-.245l.068 1.435c.292.101.56.183.802.245s.473.115.692.16a4.4 4.4 0 0 0 .641.085c.208.012.42.017.633.017.471.003.94-.046 1.401-.144a3.607 3.607 0 0 0 1.148-.447c.32-.195.584-.468.769-.793.193-.357.289-.76.278-1.165a2.362 2.362 0 0 0-.143-.87 1.97 1.97 0 0 0-.397-.632ZM80.952.681a1.093 1.093 0 0 0-.582-.16 1.137 1.137 0 0 0-.591.16 1.236 1.236 0 0 0-.43.422 1.09 1.09 0 0 0-.16.582c-.003.208.053.413.16.591.103.177.251.322.43.422.18.101.384.154.59.152.205.002.406-.05.583-.152.174-.1.317-.246.414-.422.101-.18.153-.384.152-.59a1.14 1.14 0 0 0-.152-.583 1.193 1.193 0 0 0-.414-.422ZM79.475 12.996h1.722V4.218l-1.722.253v8.525ZM89.165 9.114a2.535 2.535 0 0 0-.59-.465 4.607 4.607 0 0 0-.71-.329c-.18-.056-.357-.115-.532-.177a9.389 9.389 0 0 0-.523-.17c-.175-.05-.344-.103-.507-.16a3.646 3.646 0 0 1-.447-.185 2.952 2.952 0 0 1-.397-.254 1.105 1.105 0 0 1-.287-.32.81.81 0 0 1-.11-.423.874.874 0 0 1 .119-.464.955.955 0 0 1 .355-.329 1.91 1.91 0 0 1 .565-.203c.248-.047.5-.07.751-.067a5.46 5.46 0 0 1 .887.076c.174.028.348.065.523.11.174.044.351.095.532.151.167.052.33.114.489.186l.118-1.367a8.096 8.096 0 0 0-.633-.237 6.292 6.292 0 0 0-.633-.169 5.067 5.067 0 0 0-.633-.093 7.631 7.631 0 0 0-.616-.025 5.564 5.564 0 0 0-1.384.16 3.481 3.481 0 0 0-1.09.473c-.301.2-.548.473-.717.794a2.41 2.41 0 0 0-.253 1.14c-.005.284.04.567.135.835.08.225.2.434.355.616.15.172.323.323.515.447.2.131.411.242.633.33a13.673 13.673 0 0 0 .785.261l.38.118.362.118c.119.04.234.077.347.11.15.054.298.119.439.194.124.066.24.145.346.237a.868.868 0 0 1 .295.667.841.841 0 0 1-.278.666 1.62 1.62 0 0 1-.727.347 4.312 4.312 0 0 1-.953.1c-.2 0-.4-.015-.6-.041a8.982 8.982 0 0 1-.692-.118c-.242-.051-.49-.113-.743-.186a15.333 15.333 0 0 1-.767-.245l.067 1.435c.293.101.56.183.802.245s.473.115.692.16c.212.044.426.073.642.085.208.012.419.017.633.017.47.003.94-.046 1.4-.144a3.61 3.61 0 0 0 1.149-.447c.32-.195.584-.468.768-.793.193-.357.29-.76.278-1.165a2.362 2.362 0 0 0-.143-.87 1.968 1.968 0 0 0-.397-.632ZM96.95 12.996h2.228l-4.096-4.614 4.011-3.996h-2.11L94.094 7.56h-.622V.25L91.75.504v12.492h1.722V8.86h.028l3.45 4.136Z"/></svg>
